X: 33864
T: Reculver, The
R: polka
M: 2/4
K: Edorian
|:GE E>F|GE E>F|GB AG|FD DE/F/|
GE E>F|GE E>F|GE AF|1 E2 E>F:|2 E2 E2||
|:eE dE|BE AE|GA/G/ FE|DF A2|
eE dE|BE AE|GA/G/ FD|1 E2 E2:|2 E2 E>F||

